COLOR/action 16/16/evolution-tasks.svg

<svg height="15.999999" width="15.999999" xmlns="http://www.w3.org/2000/svg" xmlns:xlink="http://www.w3.org/1999/xlink"><linearGradient id="a" gradientTransform="matrix(0 -.04119302 .04164955 0 -5.330382 18.181757)" gradientUnits="userSpaceOnUse" x1="441.37933" x2="52.9655" y1="240.28154" y2="401.42957"><stop offset="0" stop-color="#5884f4"/><stop offset="1" stop-color="#80a3fa"/></linearGradient><path d="m4.678115.00000992c-3.2444254 0-3.5935228.32958812-3.5776189 3.54485068v4.4551197 4.4551087c-.015893 3.215274.3331935 3.544862 3.5776189 3.544862h6.710865c3.244436 0 3.57763-.329545 3.57763-3.544862v-4.4551087-4.4551197c0-3.21530522-.333205-3.54485068-3.57763-3.54485068z" fill="url(#a)" stroke-width="1.066663"/><path d="m8.0333028-.00000075v15.99994075h3.3562322c3.244425 0 3.577075-.330505 3.577075-3.545821v-4.4541494-4.4541491c0-3.21530513-.332661-3.54582125-3.577075-3.54582125z" fill="#fff" opacity=".1" stroke-width="1.066663"/><path d="m6.9670453 4.2720152-2.1333255 2.1333256-1.0666628-1.0666628" fill="none" stroke="#fdfeff" stroke-linecap="square" stroke-width=".746664"/><path d="m9.1003708 5.3387953h3.1999872v.5333314h-3.1999872z" fill="#fff" stroke-width="1.066663"/><path d="m9.1003708 10.672109h3.1999872v.533332h-3.1999872z" fill="#024" opacity=".3" stroke-width="1.066663"/><path d="m6.9670453 9.6053291-2.1333255 2.1333259-1.0666628-1.066663" fill="none" opacity=".3" stroke="#024" stroke-linecap="square" stroke-width=".746664"/><g stroke-width="1.066663"><path d="m4.6785534.00005777c-3.2444254 0-3.5929743.3305576-3.5770703 3.54582013v.5333314c-.015904-3.21526253.3326449-3.54582015 3.5770703-3.54582015h6.7103916c3.244425 0 3.57707.33051506 3.57707 3.54582015v-.5333314c0-3.21530519-.332645-3.54582013-3.57707-3.54582013z" fill="#fff" opacity=".3"/><path d="m1.1014831 11.920847v.533331c-.015893 3.215274.3326449 3.545821 3.5770703 3.545821h6.7103916c3.244436 0 3.57707-.330504 3.57707-3.545821v-.533331c0 3.215316-.332634 3.545821-3.57707 3.545821h-6.7103916c-3.2444254 0-3.5929636-.330547-3.5770703-3.545821z" opacity=".2"/></g></svg>

<?xml version="1.0" encoding="UTF-8" standalone="no"?>
<svg
   xmlns:dc="http://purl.org/dc/elements/1.1/"
   xmlns:cc="http://creativecommons.org/ns#"
   xmlns:rdf="http://www.w3.org/1999/02/22-rdf-syntax-ns#"
   xmlns:svg="http://www.w3.org/2000/svg"
   xmlns="http://www.w3.org/2000/svg"
   xmlns:sodipodi="http://sodipodi.sourceforge.net/DTD/sodipodi-0.dtd"
   xmlns:inkscape="http://www.inkscape.org/namespaces/inkscape"
   height="15.999999"
   width="15.999999"
   version="1.1"
   id="svg23"
   sodipodi:docname="evolution-tasks.svg"
   inkscape:version="0.92.4 (5da689c313, 2019-01-14)">
  <metadata
     id="metadata29">
    <rdf:RDF>
      <cc:Work
         rdf:about="">
        <dc:format>image/svg+xml</dc:format>
        <dc:type
           rdf:resource="http://purl.org/dc/dcmitype/StillImage" />
        <dc:title></dc:title>
      </cc:Work>
    </rdf:RDF>
  </metadata>
  <defs
     id="defs27" />
  <sodipodi:namedview
     pagecolor="#ffffff"
     bordercolor="#666666"
     borderopacity="1"
     objecttolerance="10"
     gridtolerance="10"
     guidetolerance="10"
     inkscape:pageopacity="0"
     inkscape:pageshadow="2"
     inkscape:window-width="1492"
     inkscape:window-height="832"
     id="namedview25"
     showgrid="false"
     inkscape:zoom="40.937502"
     inkscape:cx="7.9999995"
     inkscape:cy="7.9999995"
     inkscape:window-x="0"
     inkscape:window-y="27"
     inkscape:window-maximized="0"
     inkscape:current-layer="svg23" />
  <linearGradient
     id="a"
     gradientTransform="matrix(0,-0.04119302,0.04164955,0,-5.3303817,18.181757)"
     gradientUnits="userSpaceOnUse"
     x1="441.37933"
     x2="52.9655"
     y1="240.28154"
     y2="401.42957">
    <stop
       offset="0"
       stop-color="#5884f4"
       id="stop2" />
    <stop
       offset="1"
       stop-color="#80a3fa"
       id="stop4" />
  </linearGradient>
  <path
     d="M 4.678115,9.9163257e-6 C 1.4336896,9.9163257e-6 1.0845922,0.32959804 1.1004961,3.5448606 v 4.4551197 4.4551087 c -0.015893,3.215274 0.3331935,3.544862 3.5776189,3.544862 h 6.710865 c 3.244436,0 3.57763,-0.329545 3.57763,-3.544862 V 7.9999803 3.5448606 C 14.96661,0.32955538 14.633405,9.9163257e-6 11.38898,9.9163257e-6 Z"
     id="path7"
     style="fill:url(#a);stroke-width:1.06666279"
     inkscape:connector-curvature="0" />
  <path
     d="M 8.0333028,-7.5367432e-7 V 15.99994 h 3.3562322 c 3.244425,0 3.577075,-0.330505 3.577075,-3.545821 V 7.9999696 3.5458205 C 14.96661,0.33051537 14.633949,-7.5367432e-7 11.389535,-7.5367432e-7 Z"
     id="path9"
     inkscape:connector-curvature="0"
     style="opacity:0.1;fill:#ffffff;stroke-width:1.06666279" />
  <path
     d="M 6.9670453,4.2720152 4.8337198,6.4053408 3.767057,5.338678"
     id="path11"
     inkscape:connector-curvature="0"
     style="fill:none;stroke:#fdfeff;stroke-width:0.74666393;stroke-linecap:square" />
  <path
     d="M 9.1003708,5.3387953 H 12.300358 V 5.8721267 H 9.1003708 Z"
     id="path13"
     inkscape:connector-curvature="0"
     style="fill:#ffffff;stroke-width:1.06666279" />
  <path
     d="m 9.1003708,10.672109 h 3.1999872 v 0.533332 H 9.1003708 Z"
     id="path15"
     inkscape:connector-curvature="0"
     style="opacity:0.3;fill:#002244;stroke-width:1.06666279" />
  <path
     d="M 6.9670453,9.6053291 4.8337198,11.738655 3.767057,10.671992"
     id="path17"
     inkscape:connector-curvature="0"
     style="opacity:0.3;fill:none;stroke:#002244;stroke-width:0.74666393;stroke-linecap:square" />
  <path
     d="M 4.6785534,5.7766326e-5 C 1.434128,5.7766326e-5 1.0855791,0.33061537 1.1014831,3.5458779 V 4.0792093 C 1.0855791,0.86394677 1.434128,0.53338915 4.6785534,0.53338915 h 6.7103916 c 3.244425,0 3.57707,0.33051506 3.57707,3.54582015 V 3.5458779 c 0,-3.21530519 -0.332645,-3.545820133674 -3.57707,-3.545820133674 z"
     id="path19"
     inkscape:connector-curvature="0"
     style="opacity:0.3;fill:#ffffff;stroke-width:1.06666279" />
  <path
     d="m 1.1014831,11.920847 v 0.533331 c -0.015893,3.215274 0.3326449,3.545821 3.5770703,3.545821 h 6.7103916 c 3.244436,0 3.57707,-0.330504 3.57707,-3.545821 v -0.533331 c 0,3.215316 -0.332634,3.545821 -3.57707,3.545821 H 4.6785534 c -3.2444254,0 -3.5929636,-0.330547 -3.5770703,-3.545821 z"
     id="path21"
     inkscape:connector-curvature="0"
     style="opacity:0.2;stroke-width:1.06666279" />
</svg>
